frontend/src/assets/Board_Coin/Default/yellow-negest-king.svg

<svg width="26" height="26" viewBox="0 0 26 26" fill="none" xmlns="http://www.w3.org/2000/svg">
<g clip-path="url(#clip0_1189_5253)">
<g opacity="0.69">
<path d="M12.8877 25.5603C19.7913 25.5603 25.3877 19.9639 25.3877 13.0603C25.3877 6.15674 19.7913 0.560303 12.8877 0.560303C5.98414 0.560303 0.387695 6.15674 0.387695 13.0603C0.387695 19.9639 5.98414 25.5603 12.8877 25.5603Z" fill="#FFD015"/>
<path d="M12.8876 23.67C18.7472 23.67 23.4973 18.9199 23.4973 13.0603C23.4973 7.2007 18.7472 2.45056 12.8876 2.45056C7.02797 2.45056 2.27783 7.2007 2.27783 13.0603C2.27783 18.9199 7.02797 23.67 12.8876 23.67Z" fill="#FFC501"/>
<path d="M18.4376 4.00519C19.4941 5.65333 20.1077 7.61514 20.1077 9.72002C20.1077 15.5779 15.3587 20.3298 9.49799 20.3298C7.46189 20.3298 5.56336 19.7574 3.94824 18.7642C5.83301 21.7082 9.13204 23.659 12.8878 23.659C18.7457 23.659 23.4975 18.91 23.4975 13.0493C23.4975 9.22476 21.4725 5.87345 18.4403 4.00794L18.4376 4.00519Z" fill="#F5B611"/>
<path d="M4.13802 14.0316C4.13802 8.85881 8.33128 4.66555 13.5041 4.66555C16.528 4.66555 19.2162 6.09907 20.9276 8.32227C19.3097 5.51576 16.2803 3.62549 12.808 3.62549C7.63516 3.62549 3.44189 7.81875 3.44189 12.9915C3.44189 15.1405 4.16554 17.1188 5.38444 18.7009C4.59202 17.3279 4.14077 15.732 4.14077 14.0344L4.13802 14.0316Z" fill="#FFD453"/>
</g>
</g>
<path d="M5.84809 14.784C5.65262 14.2316 5.51664 13.6622 5.3495 13.0985C5.0917 12.2146 4.84241 11.3307 4.59028 10.444C4.58178 10.4157 4.56761 10.3902 4.59311 10.3477C5.02938 10.5772 5.46848 10.8066 5.90475 11.0361C6.36368 11.2769 6.82261 11.5205 7.28154 11.7642C7.31553 11.784 7.35236 11.8095 7.39485 11.784C7.42035 11.8237 7.45151 11.8548 7.49684 11.8746C8.23623 12.2599 8.97562 12.648 9.71217 13.039C9.80849 13.09 9.85098 13.0673 9.89914 12.9766C10.2334 12.3336 10.5734 11.6933 10.9105 11.0531C10.936 11.0078 10.9587 10.9596 10.9502 10.9058C11.0436 10.8888 11.0493 10.801 11.0833 10.7387C11.6669 9.62532 12.2476 8.51199 12.8284 7.39865C12.8454 7.36749 12.8624 7.33916 12.8935 7.28534C13.0493 7.57713 13.1938 7.84625 13.3355 8.11821C13.7972 9.00208 14.259 9.88595 14.7208 10.7698C14.7491 10.8236 14.7547 10.8973 14.8369 10.9086C14.8284 10.9823 14.8681 11.0418 14.8992 11.1013C15.2278 11.7273 15.5621 12.3506 15.8879 12.9795C15.9446 13.0871 15.9984 13.0815 16.089 13.0333C16.6018 12.7613 17.1202 12.4951 17.633 12.2231C17.8908 12.0871 18.1486 11.9426 18.4064 11.8038C18.6358 11.6877 18.8681 11.5715 19.0976 11.4554C19.1543 11.427 19.2137 11.4044 19.2704 11.3789C19.2704 12.2118 19.2562 13.0418 19.2817 13.8747C19.2959 14.3393 18.9106 14.7954 18.3582 14.7925C14.1882 14.7812 10.0153 14.7869 5.84525 14.7869L5.84809 14.784ZM13.7321 12.9087C13.7321 12.5744 13.6669 12.3194 13.5111 12.0956C13.2363 11.7018 12.7944 11.6169 12.4799 11.886C12.0097 12.2939 11.919 13.0786 12.2816 13.5857C12.6046 14.039 13.055 14.073 13.4346 13.6707C13.6527 13.4384 13.7151 13.1495 13.7292 12.9058L13.7321 12.9087Z" fill="#F8CD69" stroke="black" stroke-width="0.5" stroke-miterlimit="10"/>
<path d="M5.84814 14.7841C10.0182 14.7841 14.1911 14.7784 18.3611 14.7897C18.9135 14.7897 19.2988 14.3336 19.2846 13.8719C19.2591 13.0418 19.2761 12.209 19.2733 11.3761C19.888 11.0503 20.5056 10.7217 21.1203 10.3959C21.1402 10.3846 21.1628 10.3846 21.1855 10.3789C21.1742 10.6197 21.0779 10.8435 21.0099 11.0758C20.5396 12.7359 20.0637 14.396 19.5877 16.0561C19.5764 16.0957 19.5622 16.1325 19.5509 16.1722C19.2761 16.1722 18.9985 16.1722 18.7237 16.1722C14.5622 16.1722 10.4035 16.1722 6.24192 16.1722C6.1116 15.7104 5.97846 15.2487 5.84814 14.7869V14.7841Z" fill="#F6C144" stroke="black" stroke-width="0.5" stroke-miterlimit="10"/>
<path d="M18.7234 16.1693C18.9982 16.1693 19.2759 16.1693 19.5506 16.1693C19.5506 16.6821 19.5507 17.1977 19.5563 17.7104C19.5563 17.8124 19.5223 17.8464 19.426 17.8323C19.3977 17.8294 19.3693 17.8323 19.3382 17.8323C15.0407 17.8323 10.746 17.8323 6.44845 17.8351C6.28415 17.8351 6.21049 17.8096 6.22749 17.6226C6.24732 17.4158 6.23599 17.2062 6.23599 16.9994C10.1624 16.9994 14.0888 16.9994 18.0152 16.9994C18.0662 16.9994 18.12 16.9994 18.171 16.9994C18.426 16.9937 18.6158 16.8436 18.6923 16.5971C18.7376 16.4555 18.7036 16.311 18.7149 16.1665L18.7234 16.1693Z" fill="#F2A23A" stroke="black" stroke-width="0.5" stroke-miterlimit="10"/>
<path d="M10.9532 10.903C10.9617 10.9568 10.9391 11.0049 10.9136 11.0503C10.5765 11.6905 10.2365 12.3307 9.90224 12.9738C9.85408 13.0645 9.81159 13.0871 9.71527 13.0361C8.97871 12.6452 8.23932 12.2599 7.49993 11.8718C7.45744 11.8492 7.42628 11.818 7.39795 11.7812C7.65291 10.393 7.91071 9.00491 8.17417 7.5658C8.33847 7.75843 8.47162 7.91708 8.60477 8.07855C9.38665 9.01908 10.1685 9.96244 10.9532 10.903Z" fill="#F6C144" stroke="black" stroke-width="0.5" stroke-miterlimit="10"/>
<path d="M18.4087 11.801C18.1509 11.9398 17.896 12.0843 17.6354 12.2202C17.1226 12.4922 16.6042 12.7585 16.0914 13.0305C15.9979 13.0786 15.9469 13.0843 15.8903 12.9766C15.5645 12.3477 15.2331 11.7245 14.9016 11.0984C14.8704 11.0389 14.8279 10.9794 14.8393 10.9058C15.5022 10.1069 16.1679 9.30519 16.8336 8.50631C17.0829 8.20602 17.3351 7.90573 17.6127 7.57428C17.8847 9.01056 18.1481 10.4072 18.4087 11.8038V11.801Z" fill="#F6C144" stroke="black" stroke-width="0.5" stroke-miterlimit="10"/>
<path d="M18.7236 16.1693C18.7123 16.311 18.7462 16.4555 18.7009 16.5999C18.6244 16.8464 18.4318 16.9965 18.1797 17.0022C18.1287 17.0022 18.0748 17.0022 18.0239 17.0022C14.0974 17.0022 10.171 17.0022 6.24463 17.0022C6.24463 16.7246 6.24463 16.447 6.24463 16.1665C10.4062 16.1665 14.5649 16.1665 18.7264 16.1665L18.7236 16.1693Z" fill="#F4B461" stroke="black" stroke-width="0.5" stroke-miterlimit="10"/>
<path d="M21.1883 10.3785C21.1883 10.3785 21.1938 10.3702 21.1965 10.3647C21.1938 10.3675 21.1883 10.373 21.1855 10.3757V10.3785H21.1883Z" fill="#F6C144" stroke="black" stroke-width="0.5" stroke-miterlimit="10"/>
<path d="M13.7319 12.9086C13.7177 13.1522 13.6554 13.4412 13.4373 13.6735C13.0577 14.0758 12.6072 14.0389 12.2843 13.5885C11.9188 13.0786 12.0123 12.2967 12.4826 11.8888C12.7942 11.6196 13.2361 11.7046 13.5138 12.0984C13.6696 12.3222 13.7347 12.5772 13.7347 12.9115L13.7319 12.9086Z" fill="#F2A23A" stroke="black" stroke-width="0.5" stroke-miterlimit="10"/>
<defs>
<clipPath id="clip0_1189_5253">
<rect width="25" height="25" fill="white" transform="translate(0.387695 0.560303)"/>
</clipPath>
</defs>
</svg>

<svg width="26" height="26" fill="none" xmlns="http://www.w3.org/2000/svg"><g opacity=".69" clip-path="url(#a)"><path d="M12.888 25.56c6.903 0 12.5-5.596 12.5-12.5 0-6.903-5.597-12.5-12.5-12.5-6.904 0-12.5 5.597-12.5 12.5 0 6.904 5.596 12.5 12.5 12.5z" fill="#FFD015"/><path d="M12.888 23.67c5.86 0 10.61-4.75 10.61-10.61 0-5.86-4.75-10.61-10.61-10.61-5.86 0-10.61 4.75-10.61 10.61 0 5.86 4.75 10.61 10.61 10.61z" fill="#FFC501"/><path d="M18.438 4.005a10.556 10.556 0 0 1 1.67 5.715c0 5.858-4.75 10.61-10.61 10.61-2.036 0-3.935-.573-5.55-1.566a10.598 10.598 0 0 0 8.94 4.895c5.858 0 10.61-4.749 10.61-10.61 0-3.824-2.026-7.176-5.058-9.041l-.002-.003z" fill="#F5B611"/><path d="M4.138 14.032a9.366 9.366 0 0 1 16.79-5.71A9.366 9.366 0 1 0 5.385 18.701a9.31 9.31 0 0 1-1.244-4.667l-.003-.002z" fill="#FFD453"/></g><path d="M5.848 14.784c-.195-.552-.331-1.122-.498-1.686-.258-.883-.508-1.767-.76-2.654-.008-.028-.022-.054.003-.096.436.23.875.459 1.312.688.459.24.918.485 1.377.728.034.02.07.046.113.02.025.04.057.07.102.09.74.386 1.479.774 2.215 1.165.096.051.139.028.187-.062.334-.643.674-1.284 1.012-1.924.025-.045.048-.093.04-.147.093-.017.098-.105.132-.167.584-1.114 1.165-2.227 1.745-3.34.017-.032.034-.06.066-.114.155.292.3.561.441.833l1.386 2.652c.028.054.034.127.116.139-.009.073.031.133.062.192.329.626.663 1.25.989 1.878.057.108.11.103.201.054.513-.272 1.031-.538 1.544-.81.258-.136.516-.28.773-.42l.692-.348c.056-.028.116-.05.172-.076 0 .833-.014 1.663.012 2.496a.91.91 0 0 1-.924.918c-4.17-.012-8.343-.006-12.513-.006l.003-.003zm7.884-1.875c0-.335-.065-.59-.22-.813-.276-.394-.718-.48-1.032-.21-.47.408-.561 1.193-.198 1.7.323.453.773.487 1.153.085.218-.233.28-.521.294-.765l.003.003z" fill="#F8CD69" stroke="#000" stroke-width=".5" stroke-miterlimit="10"/><path d="M5.848 14.784c4.17 0 8.343-.006 12.513.006a.913.913 0 0 0 .924-.918c-.026-.83-.009-1.663-.012-2.496l1.847-.98c.02-.011.043-.011.066-.017-.012.24-.108.465-.176.697-.47 1.66-.946 3.32-1.422 4.98-.012.04-.026.076-.037.116H6.242c-.13-.462-.264-.923-.394-1.385v-.003z" fill="#F6C144" stroke="#000" stroke-width=".5" stroke-miterlimit="10"/><path d="M18.723 16.17h.828c0 .512 0 1.028.005 1.54 0 .102-.034.136-.13.122-.028-.003-.057 0-.088 0-4.297 0-8.592 0-12.89.003-.164 0-.238-.025-.22-.212.02-.207.008-.417.008-.624H18.171a.538.538 0 0 0 .521-.402c.046-.142.012-.286.023-.43l.008.002z" fill="#F2A23A" stroke="#000" stroke-width=".5" stroke-miterlimit="10"/><path d="M10.953 10.903c.009.054-.014.102-.04.147-.337.64-.677 1.28-1.01 1.924-.049.09-.091.113-.188.062-.736-.39-1.476-.776-2.215-1.164a.314.314 0 0 1-.102-.09c.255-1.389.513-2.777.776-4.216.164.192.298.351.43.513.783.94 1.565 1.883 2.35 2.824zM18.409 11.801c-.258.139-.513.283-.774.42-.512.271-1.03.537-1.544.81-.093.048-.144.053-.2-.054-.326-.63-.658-1.252-.99-1.879-.03-.06-.073-.119-.062-.192.663-.8 1.329-1.6 1.995-2.4.249-.3.501-.6.779-.932.272 1.437.535 2.833.796 4.23V11.8z" fill="#F6C144" stroke="#000" stroke-width=".5" stroke-miterlimit="10"/><path d="M18.724 16.17c-.012.141.022.285-.023.43a.54.54 0 0 1-.521.402H6.244v-.835h12.482l-.002.002z" fill="#F4B461" stroke="#000" stroke-width=".5" stroke-miterlimit="10"/><path d="m21.188 10.379.009-.014a.57.57 0 0 1-.011.01v.004h.002z" fill="#F6C144" stroke="#000" stroke-width=".5" stroke-miterlimit="10"/><path d="M13.732 12.909c-.014.243-.077.532-.295.764-.38.403-.83.366-1.153-.085-.365-.51-.272-1.291.199-1.7.311-.268.753-.183 1.03.21.157.224.222.48.222.813l-.003-.002z" fill="#F2A23A" stroke="#000" stroke-width=".5" stroke-miterlimit="10"/><defs><clipPath id="a"><path fill="#fff" transform="translate(.388 .56)" d="M0 0h25v25H0z"/></clipPath></defs></svg>
